src/assets/duotone/Nem.svg

<svg width="24" height="24" viewBox="0 0 24 24"  xmlns="http://www.w3.org/2000/svg">
<path opacity="0.6" d="M16.3601 18.4901C16.3501 18.5001 16.3501 18.5101 16.3501 18.5101C15.1601 19.7701 13.7301 20.9601 12.0001 22.0001C12.0001 22.0001 3.1601 17.5801 2.1001 7.08008C5.2101 17.1501 12.0001 10.0001 12.0001 10.0001C18.7601 12.9001 16.5201 18.1401 16.3601 18.4901Z" />
<path opacity="0.4" d="M16.3597 18.4903C16.5197 18.1403 18.7598 12.9003 11.9998 10.0003C10.9998 4.00031 16.0698 2.94031 16.0698 2.94031L16.6597 2.82031H16.6697C18.4097 3.23031 20.1998 3.92031 21.9998 5.00031C21.9998 5.00031 21.9997 12.5003 16.3597 18.4903Z" />
<path d="M16.66 2.81979L16.07 2.93979C16.07 2.93979 11 3.99979 12 9.99979C12 9.99979 5.20998 17.1498 2.09998 7.07979V7.06979C2.03998 6.40979 2 5.70979 2 4.99979C2 4.99979 8.71997 0.969786 16.66 2.81979Z" />
</svg>

<?xml version="1.0" encoding="UTF-8"?>
<svg width="24" height="24" viewBox="0 0 24 24" xmlns="http://www.w3.org/2000/svg">
 <path d="m16.36 18.49c-0.01 0.01-0.01 0.02-0.01 0.02-1.19 1.26-2.62 2.45-4.35 3.49 0 0-8.84-4.42-9.9-14.92 3.11 10.07 9.9 2.92 9.9 2.92 6.76 2.9 4.52 8.14 4.36 8.49z" opacity=".6"/>
 <path d="m16.36 18.49c0.16-0.35 2.4001-5.59-4.3599-8.49-1-6 4.07-7.06 4.07-7.06l0.5899-0.12h0.01c1.74 0.41 3.5301 1.1 5.3301 2.18 0 0-1e-4 7.5-5.6401 13.49z" opacity=".4"/>
 <path d="m16.66 2.8198-0.59 0.12s-5.07 1.06-4.07 7.06c0 0-6.79 7.15-9.9-2.92v-0.01c-0.06-0.66-0.09998-1.36-0.09998-2.07 0 0 6.72-4.03 14.66-2.18z"/>
</svg>
